X: 2429
M: C
L: 1/8
K: A
|:\
aA za aA za | a>=g (e>f) g4 |\
(3=GBd =g>a g4 |
(3Bd=g a>b a4 |\
aA za aA za | a>=g (e>f) g4 |\
a>f=g>e f>de>c | B>ed>B A4 :|


